X:1
T:Wie lieblich und wie schöne
T:Joachim a Burck
T:Source : Breitkopf & Härtel---Leipzig---R.Eitner---1898. First print : 20 Deutsche Liedlein zu 4 Stimmen---Erfurt---G.Baumann---1575. Editor : André Vierendeels (07/11/17). Notes : Original clefs : C1 C3, C4, F4 Editorial accidentals above the staff Text by Ludwig Helmbold (Christeliche Reimen) 
T:#
T:Wie lieblich und wie schöne
T:©
T:©
T:©
T:©
C:Joachim a Burck
Z:©
%%score [ 1 [ 2 3 ] 4 ]
L:1/8
Q:1/4=120
M:4/4
K:F
V:1 treble nm="Soprano" snm="S"
V:2 treble-8 nm="Tenor 1" snm="T 1"
V:3 treble-8 nm="Tenor 2" snm="T 2"
V:4 bass nm="Bass" snm="B"
V:1
"^1)" B4 A4 | B2 G4 G2 | ^F4 G4 | z2 G2 F2 F2 | E2 G4 F2 | G4 E4 | F2 E4 D2 | ^C4 D4 | z2 B2 A4 | %9
w: Wie lieb-|lich und wie|schö- ne,|wie lieb- lich|und wie schö-|ne sind|der bo- ten|Füs- se,|die auf|
w: Hört, wie|die Wäch- ter|ru- fen|frey mit lau-|ter Stim- me|dass viel|Guts sey zu|hof- fen,|thun sie|
 B2 G4 G2 | ^F4 G4 | z2 G2 F2 F2 | E2 G4 F2 | G4 E4 | F2 D4 D2 | ^C4 D4 | z2 ^F4 G2- | %17
w: den Ber- gen|ge- hen,|die auf den|Ber- gen ge-|hen, und|her- ab uns|grüs- sen|mit Fried|
w: freu- * dig|ru- fen,|thun sie freu-|dig ru- fen.|Öf- fent-|lich wird mans|scha- wen|Öf- fent-|
"^-natural" G2 G2 F2 E2 | F4 F2 F2 | F4 F2 G2- | G2 A2 G2 G2 |[M:2/4] ^F4 |:"^-natural" z2 F2 | %23
w: _ und gros- ser|Gü- te und|sa- gen, dass|_ Gott Kö- nig|sey,|und|
w: * lich wird mans|scha- wen, dass|Gott viel Volcks|_ be- ke- ren|wird,|dass|
[M:4/4] F2 G2 E2 D2 | E2 F2 G2 B2- | B2 A2 F2 G2 | E4 D4- | D2 G4 F2 | F4 _E4 | D8 | D8 |] %31
w: sa- gen, dass Gott|Kö- nig sey, der|_ Zy- on be-|hü- te,|_ der Zy-|on be-|hü-|te.|
w: Gott viel Volcks be-|ke- ren wird zu|_ sein Dienst und|Glau- ben,|_ zu sein|Dienst und|Glau-|ben.|
V:2
"^2)""^1)" g4 f4 | f2 _e4 d2 | d4 d4 | z2 d2 d2 d2 | c2 c2 d4 | d4 c4 | c2 c4 B2 | A4 A4 | B4 f4 | %9
w: Wie lieb-|lich und wie|schö- ne,|wie lieb- lich|und wie schö-|ne sind|der bo- ten|Füs- se,|die auf|
w: Der Herr|hat of- fen-|ba- ret,|der Herr hat|of- fen- ba-|ret sein|hei- ligs Ge-|heim- nis,|al- len|
 f2 _e4 d2 | d4 d4 | z2 d2 d2 d2 | c2 c2 d4 | d4 c4 | c2 B4 B2 | A4 A4 | z2 d4 d2- | %17
w: den Ber- gen|ge- hen,|die auf den|Ber- gen ge-|hen, und|her- ab uns|grüs- sen|mit Fried|
w: Völ- ckern die|War- heit,-|al- len Völ-|ckern die War-|heit, so|da wa- re|heid- nisch,|auf dass|
 d2 _e2 c2 B2- | B2 A2 B2 B2 | B4 c2 d2- | d2 d2 d2 c2 |[M:2/4] d4 |: z2 d2 |[M:4/4] d2 d2 c2 d2 | %24
w: _ und gros- ser|_ Gü- te und|sa- gen, dass|_ Gott Kö- nig|sey,|und|sa- gen, dass Gott|
w: _ al- ler Welt|_ En- de, mit|Freu- den un-|* sers Got- tes|heil,|mit|Freu- den un- sers|
 c2 c2 d2 g2- | g2 f2 d4 | c4 A4 | B2 d4 c2 | d4 c4 | B2 AG A4 | =B8 |] %31
w: Kö- nig sey, der|_ Zy- on|be- hü-|te, der Zy-|on be-|hü- * * *|te.|
w: Got- tes Heil Je-|* sum Christ|er- ken-|ne, Je- sum|Christ er|ken- * * *|ne.|
V:3
"^3)""^1)" G4 d4 | d2 c4 B2 | A4 G4 | z2 B2 A2 B2 | G2 G2 A4 | B4 G4 | A2 G4 F2 | E4 D4 | G4 d4 | %9
w: Wie lieb-|lich und wie|schö- ne,|wie lieb- lich|und wie schö-|ne sind|der bo- ten|Füs- se,|die auf|
 d2 c4 B2 | A4 G4 | z2 B2 A2 B2 | G2 G2 A4 | B4 G4 | A2 F4 G2 | E4 D4 | z2 A4 B2- | B2 B2 A2 B2 | %18
w: den Ber- gen|ge- hen,|die auf den|Ber- gen ge-|hen, und|her- ab uns|grüs- sen|mit Fried|_ und gros- ser|
 c4 d2 d2 | d4 c2 B2- | B2 A2 B2 G2 |[M:2/4] A4 |: z2 A2 |[M:4/4] A2 B2 G2 G2 | G2 A2 B2 d2- | %25
w: Gü- te und|sa- gen, dass|_ Gott Kö- nig|sey|und|sa- gen, dass Gott|Kö- nig sey, der|
 d2 c2 B4 | A2 G4 ^F2 | G2 B4 A2 | F2 D2 G4- |"^#""^#" G2 FE F4 | G8 |] %31
w: _ Zy- on|be- hü- *|ne, der Zy-|on be- hü-||te.|
V:4
"^1)" G,4 D,4 | B,,2 C,4 G,,2 | D,4 G,,4 | z2 G,,2 D,2 B,,2 | C,2 _E,2 D,4 | G,,4 C,4 | %6
w: Wie lieb-|lich und wie|schö- ne,|wie lieb- lich|und wie schö-|ne sind|
 F,,2 C,4 D,2 | A,,4 D,4 | z2 G,2 D,4 | B,,2 C,4 G,,2 | D,4 G,,4 | z2 G,,2 D,2 B,,2 | %12
w: der bo- ten|Füs- se,|die zuf|den Ber- gen|ge- hen,|die auf den|
 C,2 _E,2 D,4 | G,,4 C,4 | A,,2 B,,4 G,,2 | A,,4 D,4 | z2 D,4 G,2- | G,2 _E,2 F,2 G,2 | %18
w: Ber- gen ge-|hen, und|her- ab uns|grüs- sen|mit Fried|_ und gros- ser|
 F,4 B,,2 B,2 | B,4 A,2 G,2- | G,2 ^F,2 G,2 _E,2 |[M:2/4] D,4 |: z2 D,2 | %23
w: Gü- te und|sa- gen, dass|_ Gott Kö- nig|sey|und|
[M:4/4] D,2 G,,2 C,2 =B,,2 | C,2 A,,2 G,,2 G,,2- | G,,2 A,,2 B,,4 | C,4 D,4 | G,,2 G,,4 A,,2 | %28
w: sa- gen, dass Gott|Kö- nig sey, der|_ Zy- on|be- hü-|te, der Zy-|
 B,,4 C,4 | D,8 | G,,8 |] %31
w: on be-|hü-|te.|

